X:251
T:The angry peeler
C:anon.
O:Ireland
R:Double jig
B:O'Neills's 1001
Z:Transcribed by Frank Nordberg http://www.musicaviva.com
M:6/8
L:1/8
K:G
(B/c/B)A GED|DED GED|BAB dBG|ABA A3|(B/c/d)A GED|DED GED|BAB dBG|DEG G3:|
|:(B/c/B)A Bcd|ege dBG|BAB dBG|FAA A3|(B/c/B)A Bcd|ege dBG|BAB GED|EGG G3:|


